X:19023
T:Xiraldilla (CT 243)
R:Xiraldilla
C:Tradicional
S:Música Tradicional Asturiana, (C) Tello & Tito. Asturies, 2001.
S:http://pagina.de/MusTradAst <telloytito@asturies.org>
N:Xiraldilla, dictada por Leandra González Zuazua, de cincuenta años, de Uviéu, quien dice la aprendió en Bayón, ayuntamiento de Grau.
O:Bayón (Grau)
A:Asturies
Z:Cancioneru de Torner 243
M:2/4
L:1/8
Q:1/4=160
W:-¿Viéronme la mio gallina?
W:-Por aquí pasó.
W:-Yo nun siento la gallina,
W:nin lo que costó.
W:Siento los probes pitinos
W:que quedaron piquiñinos
W:cantando el pío, pío,
W:pío, pío, po;
W:cantando el pío, pío,
W:pío, se acabó.
W:
W:Cúrami isti didu, ceruxanu,
W:cúrami isti didu de la manu.
W:¡Ai! yo morrer, morreréi,
W:ensin saber cuándo nin de quéi.
W:Cúrami isti didu, ceruxanu,
W:cúrami isti didu de la manu.
K:G
|c3 c|cc cc|cc Bc|(d>c) (BA)|B4|B3 G|AG AB|cd cB|A2 G2|G2 z2|
c2 cc|cc cc|cc cc|cc BA|B2 BG|
|: FG AB|c2 B2|AG GG|[1 G2 zG :|[2 G2 z2|
|: FG AB|dc BA|G2 G2 :|
c2 cB|d2 dc|(d>c B2)|GA Bc|cB BA|G2 G2|
|: FG AB|dc BA|G2 G2 :||


